svg/justvector/facebook_alt.svg

<svg xmlns="http://www.w3.org/2000/svg" viewBox="0 0 100 100" enable-background="new 0 0 100 100"><path d="m95 20c0-7.882-7.116-15-15-15h-60c-7.884 0-15 7.119-15 15v59.998c0 7.882 7.116 15 15 15h29.999v-34h-11v-15h11v-5.844c0-10.08 7.569-19.16 16.875-19.16h12.12v15h-12.12c-1.327 0-2.875 1.611-2.875 4.02v5.976h15v15h-15v34h16c7.884 0 15-7.119 15-15v-59.998"/></svg>

<?xml version="1.0" encoding="iso-8859-1"?>
<!-- Generator: Adobe Illustrator 15.0.0, SVG Export Plug-In . SVG Version: 6.00 Build 0)  -->
<!DOCTYPE svg PUBLIC "-//W3C//DTD SVG 1.1//EN" "http://www.w3.org/Graphics/SVG/1.1/DTD/svg11.dtd">
<svg version="1.1" id="Icons" xmlns="http://www.w3.org/2000/svg" xmlns:xlink="http://www.w3.org/1999/xlink" x="0px" y="0px"
	 width="100px" height="100px" viewBox="0 0 100 100" style="enable-background:new 0 0 100 100;" xml:space="preserve">
<path id="Facebook__x28_alt_x29_" d="M95,20.001C95,12.119,87.884,5,80,5h-60C12.116,5,5,12.119,5,20.001v59.998
	C5,87.881,12.116,95,20.001,95H50V61H39V46h11v-5.844C50,30.077,57.569,21,66.875,21H79v15H66.875C65.548,36,64,37.611,64,40.024V46
	h15v15H64v34h16c7.884,0,15-7.119,15-15.001V20.001z"/>
</svg>
